!!!!SEGMENT: 074-1-G-012.krn
!!!COM: Fryderyk Chopin
!!!OTL: Moja pieszczotka
!!!OPS: op. 74
!!!PTL: Zbiór śpiewów polskich z towarzyszeniem fortepianu
!!!PPR: Gebethner
!!!PPP: Warsaw
!!!NIFC-rismID: 300605198
!!!NIFC-shelfmark: PL-Wbfc 963/n
!!!OMD: Allegretto.
!!!OMD: M. M. [quarter] = 120.
**kern	**kern	**dynam	**kern	**text	**dynam
*part2	*part2	*part2	*part1	*	*part1
*staff3	*staff2	*	*staff1	*	*
*I"PIANO.	*	*	*I"CANTO.	*	*
*clefF4	*clefG2	*	*clefG2	*	*
*k[b-e-a-d-g-c-]	*k[b-e-a-d-g-c-]	*	*k[b-e-a-d-g-c-]	*	*
*g-:	*g-:	*	*g-:	*	*
*M3/4	*M3/4	*	*M3/4	*	*
*	*	*	*	*	*
=1	=1	=1	=1	=1	=1
*^	*	*	*	*	*
!	!	!	!LO:DY:rj	!	!	!
4rd	2.F	4dd-	mf	2.rdd	.	.
4d- 4A-	.	4.ee-	.	.	.	.
4d- 4A-	.	.	.	.	.	.
.	.	8dd-	.	.	.	.
=2	=2	=2	=2	=2	=2	=2
4rd	2.E-	4dd-	.	2.rdd	.	.
4c- 4G-	.	4.cc-	.	.	.	.
4c- 4G-	.	.	.	.	.	.
.	.	8b-	.	.	.	.
=3	=3	=3	=3	=3	=3	=3
*ped	*	*	*	*	*	*
4rd	2.D-	4b-/	<	2.rdd	.	.
4f-X 4B- 4G-	.	4a-	.	.	.	.
*Xped	*	*	*	*	*	*
4f- 4B- 4G-	.	4g-	[[	.	.	.
*v	*v	*	*	*	*	*
=4	=4	=4	=4	=4	=4
*ped	*	*	*	*	*
4C-	2.gg-	>	2.rdd	.	.
4e- 4c- 4G-	.	.	.	.	.
*Xped	*	*	*	*	*
4e- 4c- 4G-	.	]	.	.	.
=5	=5	=5	=5	=5	=5
*^	*	*	*	*	*
4rc	2.C-	8a-L	.	2.rdd	.	.
.	.	8b-J	.	.	.	.
4e-- 4G-	.	4cc-	.	.	.	.
4e-- 4G-	.	4cc-	.	.	.	.
=6	=6	=6	=6	=6	=6	=6
*	*	*	*	*	*	*
!	!	!LO:TUP:a	!	!	!	!
4rc	2.D-	(12cc-L	.	2.rdd	.	.
.	.	12dd-	.	.	.	.
.	.	12cc-J)	.	.	.	.
4d- 4B- 4G-	.	8b-L	.	.	.	.
.	.	8g-J	.	.	.	.
4d- 4B- 4G-	.	4b-/	.	.	.	.
=7	=7	=7	=7	=7	=7	=7
!	!	!LO:TUP:b	!	!	!	!
4rc	2.D-	(12b-L>	.	2.rdd	.	.
.	.	12cc-	.	.	.	.
.	.	12b-J)	.	.	.	.
4c- 4F	.	8a-L	.	.	.	.
.	.	8d-J	.	.	.	.
4c- 4F	.	4a-	.	.	.	.
*v	*v	*	*	*	*	*
=8	=8	=8	=8	=8	=8
4GG-\	4g-	.	2.rdd	.	.
4B-/ 4D-/	4r	.	.	.	.
4r	[4d-	.	.	.	.
!!LO:LB:g=original
=9	=9	=9	=9	=9	=9
4GG-\	2d-]	.	4b-	Mo-	.
2D-	.	.	4cc-	-ja	.
.	[4d- 4B-< 4G-<	.	4b-	pie-	.
=10	=10	=10	=10	=10	=10
4GG-	2d-]	.	2a-	-szczot-	.
2D-	.	.	.	.	.
.	[4d- 4c- 4A-< 4F<	.	4d-	-ka	.
=11	=11	=11	=11	=11	=11
4GG-	2d-]	.	8d-	gdy	.
!	!	!	!	!	!LO:HP:a
.	.	.	8f	w we-	<
2D-	.	.	4a-	-so-	.
.	[4d- 4c- 4A-< 4F<	.	4cc-	łéy	[
=12	=12	=12	=12	=12	=12
!	!	!	!	!	!LO:HP:a
!	!LO:TX:b:t=poco cres_cen_do:problem:dynamics with line extentions	!	!	!	!
!	!	!LO:HP:b:t=cres-cen-do:ext=ud	!	!	!
4GG-\	2d-]	<	(2ee-	chwi-	>
2D-	.	.	.	.	.
.	[4d- 4B-< 4G-<	.	4dd-)	-li	]
=13	=13	=13	=13	=13	=13
4GGn\	2d-]	.	4b-	Po-	.
2D-	.	.	(4an	-cznie	.
.	>[4d- 4B-< 4F-X<	.	4b-	szcze-	.
=14	=14	=14	=14	=14	=14
4AA-\	2d-]	.	2dd-	-bio-	.
2D-	.	.	.	.	.
.	[4d- 4c- 4F<	.	8cc-)	-tać	.
.	.	.	8b-	i	.
=15	=15	=15	=15	=15	=15
4DD-\	2d-]	.	(</4.b-	kwi-	.
2D-	.	.	.	.	.
.	.	[	(>8a-X)	.	.
.	4f [4d- 4c-	.	8b-^>/	-lić	.
.	.	.	8a-)	i	.
!!LO:LB:g=original
=16	=16	=16	=16	=16	=16
!	!LO:TX:b:t=dim _ :problem:dynamics with line extentions	!	!	!	!
!	!	!LO:HP:b:t=dim:ext=ud	!	!	!
4GG-	2d-]	>	2g-	gru-	.
2D-/	.	.	.	.	.
.	4g- [>4d- 4B-	]]	4d-	-chać	.
=17	=17	=17	=17	=17	=17
4GG-	2d-]	p	4b-	Tak	.
.	.	.	<8qdd-/	.	.
2D-	.	.	4cc-	mi-	.
.	[4d- 4B-< 4G-<	.	4b-	-le	.
=18	=18	=18	=18	=18	=18
4GG-\	2d-]	.	2a-	gru-	.
2D-	.	.	.	.	.
.	[4d- 4c- 4A-< 4F<	.	4d-	-cha	.
=19	=19	=19	=19	=19	=19
4GG-\	2d-]	.	4.d-	szcze-	.
2D-	.	.	.	.	.
.	.	.	8f	-bio-	.
.	[4d- 4c- 4A-< 4F<	.	8a-	-ce	.
.	.	.	8cc-	i	.
=20	=20	=20	=20	=20	=20
4GG-\	2d-]	.	2ee-	kwi-	.
2D-	.	.	.	.	.
.	[4d- 4B-< 4G-<	.	4dd-	-li	.
=21	=21	=21	=21	=21	=21
4GGn\	2d-]	.	(4b-	Że	.
2D-	.	.	4.an	nie	.
.	[4d- 4B-< 4F-X<	.	.	.	.
.	.	.	8b-)	chcąc	.
=22	=22	=22	=22	=22	=22
4AA-\	2d-]	.	4.cc-	słów-	.
2D-	.	.	.	.	.
.	.	.	8f	-ka	.
.	[4d- 4c- 4Fn<	.	(4f	ża-	.
!!LO:PB:g=original
=23	=23	=23	=23	=23	=23
4DD-	2d-]	.	12cc-L	dne-	.
.	.	.	12dd-	.	.
.	.	.	12cc-J)	.	.
(<2D-	.	.	4b-	-go	.
.	4d- 4F<	.	(4cc-	po-	.
=24	=24	=24	=24	=24	=24
2BB-\)	4r	.	2dd-)	-stra-	.
.	4d- 4G-<	.	.	.	.
4GGn\	4d- 4F-X<	.	4b-	-dać	.
=25	=25	=25	=25	=25	=25
2.AA-\	4r	.	4cc-	Nie	.
.	4d- 4F<	.	4b-	śmiem	.
.	4dn 4F<	.	(<4a-	prze-	.
=26	=26	=26	=26	=26	=26
2.AA-\	4r	.	4b-/)	-ry-	.
.	4e- 4cn 4A-< 4G-<	.	4a-	-wać	.
.	4e- 4c 4A-< 4G-<	.	8a-	nie	.
.	.	.	8an	śmiem	.
=27	=27	=27	=27	=27	=27
2.D-	4r	.	(>/8b-	nie	.
.	.	.	8a-X	smiem	.
.	4d- 4c-X 4F<	.	4g-	od-	.
.	[4d- 4c- 4F<	.	8fL	-po-	.
.	.	.	8e-J	.	.
!!LO:LB:g=original
=28	=28	=28	=28	=28	=28
4GG-\	2d-]	.	2e-	wia-	.
2D-	.	.	.	.	.
.	4d- 4B-< 4G-<	.	4d-)	-dać.	.
=29	=29	=29	=29	=29	=29
2.G-	4r	.	4b--	I	.
.	4e-- 4B--<	.	4b--	tyl-	.
.	4e-- 4B--<	.	4b--	-ko	.
=30	=30	=30	=30	=30	=30
!	!	!	!	!	!LO:HP:a
2.F	4r	.	(<2b--	chciał-	>]
.	4d-< 4A-<	.	.	.	.
.	4d-< 4A-<	.	4a-)	-bym	.
=31	=31	=31	=31	=31	=31
2.G-	4r	.	8b--	słu-	.
!	!	!	!	!	!LO:HP:a
.	.	.	8b--	-chać	<[
!	!	!	!	!	!LO:HP:a
.	4e-- 4B--<	.	4cc-	słu-	>]
.	4e-- 4B--<	.	4b--	-chać	[
=32	=32	=32	=32	=32	=32
2.F	4r	.	2b--^	słu-	.
.	4d- 4A-<	.	.	.	.
.	4d- 4A-<	.	4a-	-chać	.
=33	=33	=33	=33	=33	=33
2.F-X	4r	.	(4a--'	I	.
.	4d-- 4A--<	.	4a--'	tyl-	.
.	4d-- 4A--<	.	4a--')	-ko	.
=34	=34	=34	=34	=34	=34
2.E-	4r	.	(2a--	chciał-	.
.	4c-< 4G-<	.	.	.	.
.	4c-< 4G-<	.	4g-)	-bym	.
!!LO:LB:g=original
=35	=35	=35	=35	=35	=35
*	*	*^	*	*	*
4E--	4c- 4G-	.	.	8g-	słu-	<
!	!	!	!	!	!	!LO:DY:a
.	.	.	.	(8g-	-chać	[
!	!LO:TX:b:t=cresc _ :problem:dynamics with line extentions	!	!	!	!	!
!	!	!LO:HP:t=cresc:ext=ud	!	!	!	!
4E-- 4EE--	4c- 4G-	<	.	4aa-	słu-	.
4E-- 4EE--	4c- 4G-	.	.	4gg-)	-chać	.
=36	=36	=36	=36	=36	=36	=36
!	!	!	!LO:DY:a	!	!	!
*ped	*	*	*	*	*	*
2.D- 2.DD-	[2.d- 2.c- 2.F<	.	sf	(4.ff	słu-	.
.	.	.	.	8ee-'L	.	.
.	.	.	.	8dd-'J	.	.
*Xped	*	*	*	*	*	*
.	.	[[	.	8cc-)	-chać,	.
*	*	*v	*v	*	*	*
=37	=37	=37	=37	=37	=37
4GG-\	2d-]	.	4b-	Lecz	.
2D-	.	.	(4cc-	mo-	.
.	[4d- 4B-< 4G-<	.	4b-	-wy	.
=38	=38	=38	=38	=38	=38
4GG-\	2d-]	.	2a-	ży-	.
2D-	.	.	.	.	.
.	[4d- 4c- 4A-< 4F<	.	4d-)	-wość	.
=39	=39	=39	=39	=39	=39
!	!LO:TX:b:t=poco cres_cen_do_:problem:dynamics with line extensions	!	!	!	!
!	!	!LO:HP:b:t=poco cres-cen-do:ext=ud 	!	!	!
4GG-	2d-]	<	(8d-	gdy	.
.	.	.	8f	ocz-	.
!	!LO:TX:t=P:złe wyświetlanie "cresc.":problem	!	!	!	!
2D-	.	.	8a-)	-ki	.
.	.	.	8r	.	.
!	!	!	!	!	!LO:DY:a
.	[4d- 4c- 4A-< 4F<	.	4cc-	za-	.
=40	=40	=40	=40	=40	=40
4GG-\	2d-]	.	2ee-	-pa-	.
2D-	.	.	.	.	.
.	[4d- 4B-< 4G-<	.	4dd-	-li	.
=41	=41	=41	=41	=41	=41
4GGn\	2d-]	.	4b-/	I	.
2D-	.	.	4an	po-	.
.	[4d- 4B-< 4F-X<	.	4b-/	-cznie	.
!!LO:PB:g=original
=42	=42	=42	=42	=42	=42
4AA-\	2d-]	.	(2dd-	moc-	.
2D-	.	.	.	.	.
.	[4d- 4c- 4F<	.	8cc-)	-niéy	.
.	.	.	8b-	ja-	.
=43	=43	=43	=43	=43	=43
4DD-	2d-]	.	(</4.b-	-go-	.
2D-	.	.	.	.	.
.	.	.	8a-)	.	.
.	4f [>4d- 4c-	.	8b-/	-dy	.
.	.	[[	8a-	ró-	.
=44	=44	=44	=44	=44	=44
4GG-	2d-]	.	(2g-	-żo-	.
2D-	.	.	.	.	.
.	4g- [>4d- 4B-	.	4d-)	-wać	.
=45	=45	=45	=45	=45	=45
4GG-	2d-]	.	(4b-	Per-	.
.	.	.	<8qdd-/	.	.
2D-	.	.	4.cc-	-ło-	.
.	[4d- 4B-< 4G-<	.	.	.	.
.	.	.	8b-)	we	.
=46	=46	=46	=46	=46	=46
4GG-	2d-]	.	(2a-	ząb-	.
2D-	.	.	.	.	.
.	[4d- 4c- 4A-< 4F<	.	4d-)	-ki	.
=47	=47	=47	=47	=47	=47
4GG-	2d-]	.	8d-	bły-	.
!	!	!	!	!	!LO:HP:a
.	.	.	8f	-sną	<
2D-	.	.	4a-	śród	.
.	[>4d- 4c- 4A-< 4F<	.	4cc-	ko-	.
.	.	.	.	.	[[
!!LO:LB:g=original
=48	=48	=48	=48	=48	=48
!	!LO:TX:t=P:ligatura przy 2d- zakończona w dół:problem	!	!	!	!
4GG-\	2d-]	.	(2ee-	-ra-	.
2D-	.	.	.	.	.
.	4d- 4B-< 4G-<	.	8dd-L	.	.
.	.	.	8b-J)	-li	.
=49	=49	=49	=49	=49	=49
2.C-\	4r	.	4a-^>	Ach!	.
.	4e- 4A-< 4E-<	.	4r	.	.
.	4e- 4A-< 4E-<	.	4r	.	.
=50	=50	=50	=50	=50	=50
2.BB-\	4r	.	4r	.	.
.	4dn 4B-< 4F<	.	4r	.	.
.	4d 4B-< 4F<	.	4b-	Ach!	.
=51	=51	=51	=51	=51	=51
!	!	!	!LO:TX:a:t=stretto _:dur=1h1q3q1h.1h1q1h.1h1q:ext=ud:problem:text with line extensions	!	!
2.C-\	4r	.	2b-^	w ten-	.
.	4e- 4A-< 4E-<	.	.	.	.
.	4e- 4A-< 4E-<	.	4a-	-czas	.
=52	=52	=52	=52	=52	=52
2.BB-\	4r	.	4r	.	.
.	4dn 4B-< 4F<	.	4r	.	.
.	4d 4B-< 4F<	.	4b-	Ach!	.
=53	=53	=53	=53	=53	=53
[<2.C-\	4r	.	[2b.-^	w ten-	.
.	4B-< 4E-<	.	.	.	.
.	4B-< 4E-<	.	.	.	.
=54	=54	=54	=54	=54	=54
2.C-]	4B-< 4E-<	.	2b-]	.	.
.	4B-< 4E-<	.	.	.	.
.	4A-< 4E-<	.	4a-	-czas	.
=55	=55	=55	=55	=55	=55
[<2.C-\	4r	.	[2b.-^	w ten-	.
.	4B-< 4E-<	.	.	.	.
.	4B-< 4E-<	.	.	.	.
=56	=56	=56	=56	=56	=56
2.C-]	4B-< 4E-<	.	2b-]	.	.
.	4B-< 4E-<	.	.	.	.
.	4A-< 4E-<	.	4a-	-czas	.
!!LO:LB:g=original
=57	=57	=57	=57	=57	=57
.	.	.	8qb-/	.	.
2.C-\	4r	.	4a-	śmie-	.
.	4A-< 4E-<	.	4gn	léy	.
.	4A-< 4E-<	.	(4a-	w o-	.
=58	=58	=58	=58	=58	=58
!	!	!	!LO:TX:a:t=sempre più-e-accel-le-ran-do:dur=21q:ext=ud:problem:text with line extensions	!	!
!LO:TX:a:t=cresc _ :problem:dynamics with line extentions	!	!	!	!	!
!	!	!LO:HP:b:t=cresc:ext=ud	!	!	!
2.D-	4r	<	4cc-	-czę-	.
.	4B-< 4F-X<	.	4b-)	-ta	.
.	4B-< 4F-<	[[	4b-	w o-	.
=59	=59	=59	=59	=59	=59
!LO:TX:a:t=sempre-più-e-accel-le-ran-do-:dur=2w1h1q:ext=ud:problem:text with line extensions	!	!	!	!	!
2.D-	4r	.	4b-	-czę-	.
.	4B-< 4F-X<	.	(4an\	-ta	.
.	4B-< 4F-<	.	4b-	po-	.
=60	=60	=60	=60	=60	=60
2.E-	4r	.	2dd-	-glą-	.
.	4c- 4G-<	.	.	.	.
.	4c- 4G-<	.	4cc-)	-dam	.
=61	=61	=61	=61	=61	=61
!LO:N:vis=2.	!	!	!	!	!
2E-	4r	.	4cc-	U-	.
.	4c- 4G-<	.	4cc-	-sta	.
4En	4cn 4Gn<	.	4ccn	po-	.
=62	=62	=62	=62	=62	=62
2F	4r	.	4.dd-	-my-	.
.	4d- 4A-	.	.	.	.
.	.	.	8dd-	-kam	.
4F#X	4dn 4An	.	4ddn	i	.
=63	=63	=63	=63	=63	=63
2.Gn	4r	.	4ee-	słu-	.
.	4dn 4B-	.	4ddn	-chać-	.
.	4e- 4B-	.	4ee-	nie	.
!!LO:PB:g=original
=64	=64	=64	=64	=64	=64
2G#X	4r	.	2een	żą-	.
.	4en 4Bn	.	.	.	.
4r	4r	[[	4ee	-dam	.
=65	=65	=65	=65	=65	=65
!	!	!	!	!	!LO:DY:rj
!	!	!	!	!	!LO:DY:a
!	!	!	!	!	!LO:HP:a
2.rF	2.rdd	.	[2.ff	Tyl-	ff>]
=66	=66	=66	=66	=66	=66
2.rF	2.rdd	.	2.ff_	.	.
=67	=67	=67	=67	=67	=67
4A-	4f 4d-	.	2.ff_	.	.
4r	4r	.	.	.	.
4r	4r	.	.	.	.
=68	=68	=68	=68	=68	=68
2.rF	2.rdd	.	(4ff]	.	.
!	!	!	!LO:TX:a:t=rall	!	!
.	.	.	4ee-	-ko	.
.	.	.	4dd-)	ca-	.
=69	=69	=69	=69	=69	=69
!	!	!	!	!	!LO:DY:b
2.AA-\	4r	.	[2.gg-	-ło-	sf
!	!	!LO:DY:a	!	!	!
!	!LO:TX:a:t=rall	!	!	!	!
.	4e- 4G-<	.	.	.	.
.	4e- 4G-<	.	.	.	.
=70	=70	=70	=70	=70	=70
!	!LO:TX:a:t=poco-a poco.:dur=12q:ext=ud:problem:text with extention lines	!	!LO:TX:a:t=poco-a poco.:dur=12q:ext=ud:problem:text with extention lines	!	!
2.BB-\	4r	.	4gg-]	.	.
.	4dn 4A-<	.	4ff	wać!	.
.	4d 4A-<	.	4ff	ca-	.
=71	=71	=71	=71	=71	=71
!	!	!	!	!	!LO:HP:a
2.C-\	4r	.	[2.ff	-ło-	>
.	4e- 4G-<	.	.	.	.
.	4e- 4G-<	.	.	.	]]
!!LO:LB:g=original
=72	=72	=72	=72	=72	=72
2.Cn\	4r	.	4ff]	.	.
.	4e- 4An< 4G-<	.	4ee-	-wać!	.
.	4e- 4A< 4G-<	.	(4ee-	ca-	.
=73	=73	=73	=73	=73	=73
!	!	!	!LO:TX:a:t=P:problem:diminuendolike accent	!	!
2.D-	4r	.	>2ee-^	-ło-	.
.	4d- 4B-< 4G-<	.	.	.	.
.	4d- 4B-< 4G-<	.	4dd-)	.	.
=74	=74	=74	=74	=74	=74
2.D-	4r	.	(2ee-	.	.
.	4d- 4B-< 4Gn<	.	.	.	.
.	4d- 4B-< 4G<	.	4dd-	.	.
=75	=75	=75	=75	=75	=75
2.D-	4r	.	2ee-	.	.
.	4d- 4c- 4A-	.	.	.	.
.	4d- 4c- 4A-	.	4f)	-wać!	.
=76	=76	=76	=76	=76	=76
!	!LO:TX:a:t=a tempo.	!	!	!	!
2.D-	4r	.	4r	.	.
.	4d- 4c- 4A-	.	4r	.	.
!	!	!LO:DY:a	!LO:TX:a:t=a tempo.	!	!
.	4d- 4c- 4A-	.	(4f	ca-	.
=77	=77	=77	=77	=77	=77
!	!	!	!	!	!LO:DY:a
2.GG-	4r	.	4a-	-ło-	.
.	4d- 4B- 4G-	.	4g-)	-wać!	.
.	4d-	.	4r	.	.
=78	=78	=78	=78	=78	=78
*^	*	*	*	*	*
4rf	2.F	4dd-	mf	2.rdd	.	.
4d- 4A-	.	4.ee-	.	.	.	.
4d- 4A-	.	.	.	.	.	.
.	.	8dd-	.	.	.	.
!!LO:LB:g=original
=79	=79	=79	=79	=79	=79	=79
4rB	2.E-	4dd-	.	2.rdd	.	.
4c- 4G-	.	4.cc-	.	.	.	.
4c- 4G-	.	.	.	.	.	.
.	.	8b-	.	.	.	.
=80	=80	=80	=80	=80	=80	=80
4rB	2.D-	4b-/	<	2.rdd	.	.
4f-X 4B- 4G-	.	4a-	.	.	.	.
4f- 4B- 4G-	.	4g-	[[	.	.	.
*v	*v	*	*	*	*	*
=81	=81	=81	=81	=81	=81
4C-	2.gg-	>]	2.rdd	.	.
4e- 4c- 4G-	.	.	.	.	.
4e- 4c- 4G-	.	.	.	.	.
=82	=82	=82	=82	=82	=82
*^	*	*	*	*	*
4rf	2.C-	8a-L	.	2.rdd	.	.
.	.	8b-J	.	.	.	.
4e-- 4G-	.	4cc-	.	.	.	.
4e-- 4G-	.	4cc-	.	.	.	.
=83	=83	=83	=83	=83	=83	=83
!	!	!LO:TUP:a	!	!	!	!
4rf	2.D-	(12cc-L	.	2.rdd	.	.
.	.	12dd-	.	.	.	.
.	.	12cc-J)	.	.	.	.
4d- 4B- 4G-	.	8b-L	.	.	.	.
.	.	8g-J	.	.	.	.
4d- 4B- 4G-	.	4b-	.	.	.	.
=84	=84	=84	=84	=84	=84	=84
!	!	!LO:TUP:a	!	!	!	!
4rf	2.D-	(12b-L	.	2.rdd	.	.
.	.	12cc-	.	.	.	.
.	.	12b-J)	.	.	.	.
4c- 4F	.	8a-L	.	.	.	.
.	.	8d-J	.	.	.	.
4c- 4F	.	4a-	.	.	.	.
*v	*v	*	*	*	*	*
=85	=85	=85	=85	=85	=85
*ped	*	*	*	*	*
4GG-	4g-	.	2.rdd	.	.
4B- 4D-	4r	.	.	.	.
*Xped	*	*	*	*	*
4r	4r	.	.	.	.
==	==	==	==	==	==
*-	*-	*-	*-	*-	*-
!!title: @{OTL}; @{OPS} @{ONM} publisher: @{PPR}
!!!ENC: Antoni Szymański
!!!END: 2019-08-26
!!!EED: Emilia Ziętek
!!!EST: revision finished 2019-10-15
!!!RDF**kern: > = above
!!!RDF**kern: < = below
!!!system-decoration: (s1){(s2,s3)}
!!!RDF**dynam: < = "cresc.", 'fontstyle="normal"
!!!RDF**dynam: > = "dim.", 'fontstyle="normal"
!!!rism-genre: Moja pieszczotka
!!!rism-key: G-flat major
!!!rism-opus: op.  74, no. 12
!!!rism-title: Mes délices in G-flat major op.  74, no. 12
!!!rism-permalink: https://opac.rism.info/search?id=300605198&View=rism
!!!rism-773a-OPR: 300605186
!!!rism-parent-permalink: https://opac.rism.info/search?id=300605186&View=rism
